img/icons/next.svg

<svg viewBox="0 0 30 71" fill="#38C5F4" xmlns="http://www.w3.org/2000/svg">
<path d="M12.1289 2.98176V14.8422C12.1289 15.6587 12.2478 16.4152 12.4409 16.8227L20.3235 33.5094C20.7393 34.3903 20.7393 36.5911 20.3235 37.4719L12.4409 54.1586C12.2478 54.5676 12.1289 55.3226 12.1289 56.1392V67.9996C12.1289 69.7599 12.6487 70.861 13.0645 69.9801L28.4211 37.4719C28.8368 36.5911 28.8368 34.3903 28.4211 33.5094L13.0649 1.00121C12.6487 0.12033 12.1289 1.22143 12.1289 2.98176Z"/>
<path d="M12.4408 54.1585L13.3674 52.1965C13.3725 52.258 13.3764 52.3252 13.3799 52.391L13.2204 52.7285C13.0273 53.1375 12.9084 53.8925 12.9084 54.709V66.5695C12.9084 68.0109 13.2571 68.9905 13.6116 68.8217L13.064 69.98C12.6483 70.8609 12.1284 69.7598 12.1284 67.9995V56.139C12.1288 55.3225 12.2477 54.5675 12.4408 54.1585Z"/>
<path d="M20.3236 33.5093L12.441 16.8226C12.2479 16.4137 12.129 15.6586 12.129 14.8421V2.98167C12.129 1.38722 12.5548 0.350465 12.9445 0.819505C12.9234 1.04831 12.909 1.28855 12.909 1.55167V13.4121C12.909 14.2286 13.0279 14.9851 13.221 15.3926L21.1036 32.0793C21.1341 32.1537 21.3942 32.8172 21.4156 34.0599C21.4379 35.3626 21.1781 36.1577 21.1532 36.2306C20.904 36.8641 20.6551 37.4961 20.4059 38.1296C20.4184 37.9695 20.4332 37.6835 20.3985 37.4003C20.3942 37.3646 20.3892 37.3303 20.3841 37.3002C20.7331 36.3393 20.7164 34.3416 20.3236 33.5093Z"/>
<path d="M12.1289 2.98176V14.8422C12.1289 15.6587 12.2478 16.4152 12.4409 16.8227L20.3235 33.5094C20.7393 34.3903 20.7393 36.5911 20.3235 37.4719L12.4409 54.1586C12.2478 54.5676 12.1289 55.3226 12.1289 56.1392V67.9996C12.1289 69.7599 12.6487 70.861 13.0645 69.9801L28.4211 37.4719C28.8368 36.5911 28.8368 34.3903 28.4211 33.5094L13.0649 1.00121C12.6487 0.12033 12.1289 1.22143 12.1289 2.98176Z"/>
<path d="M1.43745 2.98176V14.8422C1.43745 15.6587 1.5564 16.4152 1.74945 16.8227L9.63174 33.5094C10.0475 34.3903 10.0475 36.5911 9.63174 37.4719L1.74906 54.1586C1.55601 54.5676 1.43706 55.3226 1.43706 56.1392V67.9996C1.43706 69.7599 1.95692 70.861 2.37267 69.9801L17.7297 37.4719C18.1454 36.5911 18.1454 34.3903 17.7297 33.5094L2.37345 1.00121C1.95732 0.12033 1.43745 1.22143 1.43745 2.98176Z"/>
<path d="M1.74938 54.1585L2.67602 52.1965C2.68109 52.258 2.68499 52.3252 2.6885 52.391L2.52899 52.7285C2.33594 53.1375 2.21699 53.8925 2.21699 54.709V66.5695C2.21699 68.0109 2.56566 68.9905 2.92017 68.8217L2.3726 69.98C1.95686 70.8609 1.43699 69.7598 1.43699 67.9995V56.139C1.43738 55.3225 1.55633 54.5675 1.74938 54.1585Z"/>
<path d="M9.63175 33.5093L1.74907 16.8226C1.55602 16.4137 1.43707 15.6586 1.43707 14.8421V2.98167C1.43707 1.38722 1.86295 0.350465 2.25256 0.819505C2.2315 1.04831 2.21707 1.28855 2.21707 1.55167V13.4121C2.21707 14.2286 2.33602 14.9851 2.52907 15.3926L10.4117 32.0793C10.4422 32.1537 10.7023 32.8172 10.7237 34.0599C10.746 35.3626 10.4862 36.1577 10.4613 36.2306C10.2121 36.8641 9.96325 37.4961 9.71404 38.1296C9.72652 37.9695 9.74134 37.6835 9.70663 37.4003C9.70234 37.3646 9.69727 37.3303 9.6922 37.3002C10.0416 36.3393 10.0249 34.3416 9.63175 33.5093Z"/>
<path d="M1.43745 2.98176V14.8422C1.43745 15.6587 1.5564 16.4152 1.74945 16.8227L9.63174 33.5094C10.0475 34.3903 10.0475 36.5911 9.63174 37.4719L1.74906 54.1586C1.55601 54.5676 1.43706 55.3226 1.43706 56.1392V67.9996C1.43706 69.7599 1.95692 70.861 2.37267 69.9801L17.7297 37.4719C18.1454 36.5911 18.1454 34.3903 17.7297 33.5094L2.37345 1.00121C1.95732 0.12033 1.43745 1.22143 1.43745 2.98176Z"/>
</svg>

<svg viewBox="0 0 30 71" fill="#38C5F4" xmlns="http://www.w3.org/2000/svg"><path d="M12.129 2.982v11.86c0 .817.119 1.573.312 1.98l7.882 16.687c.416.881.416 3.082 0 3.963l-7.882 16.687c-.193.409-.312 1.164-.312 1.98V68c0 1.76.52 2.862.936 1.981L28.42 37.472c.416-.88.416-3.082 0-3.963L13.065 1.001c-.416-.88-.936.22-.936 1.98z"/><path d="M12.44 54.158l.927-1.962c.005.062.01.13.013.195l-.16.337c-.193.41-.312 1.164-.312 1.981v11.86c0 1.442.35 2.421.704 2.253l-.548 1.158c-.416.88-.936-.22-.936-1.98V56.138c0-.817.12-1.572.313-1.98zm7.884-20.648L12.44 16.822c-.193-.41-.312-1.164-.312-1.98V2.981c0-1.595.426-2.632.816-2.162a7.873 7.873 0 00-.036.732v11.86c0 .817.119 1.573.312 1.98l7.883 16.687c.03.075.29.738.312 1.98.022 1.304-.238 2.099-.263 2.172l-.747 1.899a3.805 3.805 0 00-.022-.83c.35-.96.332-2.958-.06-3.79z"/><path d="M12.129 2.982v11.86c0 .817.119 1.573.312 1.98l7.882 16.687c.416.881.416 3.082 0 3.963l-7.882 16.687c-.193.409-.312 1.164-.312 1.98V68c0 1.76.52 2.862.936 1.981L28.42 37.472c.416-.88.416-3.082 0-3.963L13.065 1.001c-.416-.88-.936.22-.936 1.98z"/><path d="M1.437 2.982v11.86c0 .817.12 1.573.312 1.98L9.632 33.51c.415.881.415 3.082 0 3.963L1.749 54.159c-.193.409-.312 1.164-.312 1.98V68c0 1.76.52 2.862.936 1.981L17.73 37.472c.415-.88.415-3.082 0-3.963L2.373 1.001c-.416-.88-.936.22-.936 1.98z"/><path d="M1.75 54.158l.926-1.962c.005.062.009.13.012.195l-.159.337c-.193.41-.312 1.164-.312 1.981v11.86c0 1.442.349 2.421.703 2.253l-.547 1.158c-.416.88-.936-.22-.936-1.98V56.138c0-.817.12-1.572.312-1.98zM9.632 33.51L1.749 16.822c-.193-.41-.312-1.164-.312-1.98V2.981c0-1.595.426-2.632.816-2.162a7.887 7.887 0 00-.036.732v11.86c0 .817.119 1.573.312 1.98l7.883 16.687c.03.075.29.738.312 1.98.022 1.304-.238 2.099-.263 2.172l-.747 1.899a3.806 3.806 0 00-.022-.83c.35-.96.333-2.958-.06-3.79z"/><path d="M1.437 2.982v11.86c0 .817.12 1.573.312 1.98L9.632 33.51c.415.881.415 3.082 0 3.963L1.749 54.159c-.193.409-.312 1.164-.312 1.98V68c0 1.76.52 2.862.936 1.981L17.73 37.472c.415-.88.415-3.082 0-3.963L2.373 1.001c-.416-.88-.936.22-.936 1.98z"/></svg>
